X: 1
T: the Black Pig
C: Jerry Holland 1988
R: reel
B: J.Holland Book 1 p.51
Z: 2020 John Chambers <jc:trillian.mit.edu>
M: C|
L: 1/8
K: Em
e |\
"Em"GEEG "D"TFDDF | "Em"GEEB "Bm"edTBA | "Em"GEEG "D"FDDF | "Bm"(TB,A,)B,D "Em"{D}E2 Ee |
"Em"GEEG "D"TFDDF | "Em"EB,B,E "C"ed"Bm"TBA | "Em"GEEG "D"FDDF | "Bm"TB,A,B,D "Em"{D}E3 ||
B |\
"Em"e^def Tgfeg | "D"Tfefg afdf | "G"Tgfga bgef | "Bm"defd "Em"e/e/e ef |
("G"gb)ef gabg | ("D"fa)de fgaf | ("G"gb)fg "Em"efdB | "Bm"dBAF "Em"E/E/E E |]
